app/dist/common/images/shanghai-sinyang-s.svg

<svg height="18" viewBox="0 0 18 18" width="18" xmlns="http://www.w3.org/2000/svg"><path d="m0 0h18v18h-18z" fill="#f0f3fa"/><path d="m4 13h3v-3.59l1.37 1.95v1.64h1.25v-1.64l1.38-1.78v3.42h3v-1h-2v-6h2v-1h-3v.47a3.95 3.95 0 0 0 -1.96-.47c-1.12 0-1.88.5-2.04 1.07v-1.07h-3v1h2v6h-2zm3-6.46v2.78l.42-.29c-.2-.08-.33-.16-.39-.23l.54-.83c1.28.92 2.37.61 2.37.2 0-.38-.48-.48-1.2-.63l-.26-.05c-.76-.16-1.34-.44-1.48-.95zm1.1 2.68.94 1.4.95-1.42c-.23.07-.5.1-.83.1a6.1 6.1 0 0 1 -1.06-.08zm2.42-.29.48.3v-1.05a1.3 1.3 0 0 1 -.48.76zm.48-1.23v-2.17l-.58.69c-.34-.25-.89-.5-1.44-.5s-.92.23-.88.5c.05.27.14.42 1.3.53 1 .1 1.48.57 1.6.95z" fill="#005780" fill-rule="evenodd"/></svg>

<!-- by TradingView --><svg width="18" height="18" viewBox="0 0 18 18" xmlns="http://www.w3.org/2000/svg"><path fill="#F0F3FA" d="M0 0h18v18H0z"/><path fill-rule="evenodd" d="M4 13h3V9.41l1.37 1.95V13h1.25v-1.64L11 9.58V13h3v-1h-2V6h2V5h-3v.47A3.95 3.95 0 0 0 9.04 5C7.92 5 7.16 5.5 7 6.07V5H4v1h2v6H4v1Zm3-6.46v2.78l.42-.29c-.2-.08-.33-.16-.39-.23l.54-.83c1.28.92 2.37.61 2.37.2 0-.38-.48-.48-1.2-.63l-.26-.05c-.76-.16-1.34-.44-1.48-.95Zm1.1 2.68.94 1.4.95-1.42c-.23.07-.5.1-.83.1a6.1 6.1 0 0 1-1.06-.08Zm2.42-.29.48.3V8.18a1.3 1.3 0 0 1-.48.76ZM11 7.7V5.53l-.58.69c-.34-.25-.89-.5-1.44-.5-.55 0-.92.23-.88.5.05.27.14.42 1.3.53 1 .1 1.48.57 1.6.95Z" fill="#005780"/></svg>
